Sardi Mono Papirus Dark/16x16/actions/insert-page-break.svg

<?xml version="1.0" encoding="UTF-8" standalone="no"?>
<svg xmlns="http://www.w3.org/2000/svg" width="16" height="16" viewBox="0 0 16 16">
 <defs>
  <style type="text/css" id="current-color-scheme">
   .ColorScheme-Text { color:#d3dae3; }
  </style>
 </defs>
 <path style="fill:currentColor;opacity:1" class="ColorScheme-Text" d="M 2.84375 1.0058594 C 2.56265 1.0495594 2 1.2397531 2 1.9394531 L 2 6.5 L 13.990234 6.5 C 13.989234 5.8047 13.991234 5.1869813 13.990234 4.7382812 L 9.9941406 1.0058594 L 3 1.0058594 C 3 1.0058594 2.93745 0.99126938 2.84375 1.0058594 z M 1 7 L 1 8 L 2 8 L 2 7 L 1 7 z M 3 7 L 3 8 L 4 8 L 4 7 L 3 7 z M 5 7 L 5 8 L 6 8 L 6 7 L 5 7 z M 7 7 L 7 8 L 8 8 L 8 7 L 7 7 z M 9 7 L 9 8 L 10 8 L 10 7 L 9 7 z M 11 7 L 11 8 L 12 8 L 12 7 L 11 7 z M 13 7 L 13 8 L 14 8 L 14 7 L 13 7 z M 15 7 L 15 8 L 16 8 L 16 7 L 15 7 z M 2 9.5 L 2 14.066406 C 2 14.999406 3 15 3 15 L 12.990234 15 C 13.989234 15 13.990234 14.066406 13.990234 14.066406 C 13.999234 14.045406 13.992234 11.474 13.990234 9.5 L 2 9.5 z"/>
</svg>

<?xml version="1.0" encoding="UTF-8" standalone="no"?>
<!-- Created with Inkscape (http://www.inkscape.org/) -->
<svg id="svg7384" xmlns:rdf="http://www.w3.org/1999/02/22-rdf-syntax-ns#" style="enable-background:new" xmlns="http://www.w3.org/2000/svg" xmlns:osb="http://www.openswatchbook.org/uri/2009/osb" height="16" width="16" version="1.1" xmlns:cc="http://creativecommons.org/ns#" xmlns:dc="http://purl.org/dc/elements/1.1/">
 <metadata id="metadata90">
  <rdf:RDF>
   <cc:Work rdf:about="">
    <dc:format>image/svg+xml</dc:format>
    <dc:type rdf:resource="http://purl.org/dc/dcmitype/StillImage"/>
    <dc:title>Paper Symbolic Icon Theme</dc:title>
   </cc:Work>
  </rdf:RDF>
 </metadata>
 <title id="title8473">Paper Symbolic Icon Theme</title>
 <g id="layer12" transform="translate(-425 79)">
  <path id="path4140" opacity=".72" style="enable-background:new" d="m2.8438 1.0059c-0.2811 0.0437-0.8438 0.2339-0.8438 0.9336v4.5605h11.99c-0.001-0.6953 0.001-1.313 0-1.7617l-3.9959-3.7324h-6.9941s-0.0625-0.01459-0.1562 0zm-1.8438 5.9941v1h1v-1h-1zm2 0v1h1v-1h-1zm2 0v1h1v-1h-1zm2 0v1h1v-1h-1zm2 0v1h1v-1h-1zm2 0v1h1v-1h-1zm2 0v1h1v-1h-1zm2 0v1h1v-1h-1zm-13 2.5v4.566c0 0.933 1 0.934 1 0.934h9.99c0.999 0 1-0.934 1-0.934 0.009-0.021 0.002-2.592 0-4.566h-11.99z" transform="translate(425 -79)" fill="#fff"/>
 </g>
</svg>
